assets/godaddy-oss-logo.svg

<svg fill="none" height="40" viewBox="0 0 40 40" width="40" xmlns="http://www.w3.org/2000/svg"><path d="m25.7248 0c-5.0517 0-9.4933 2.63569-12.0314 6.61364-3.319 4.39286-6.10117 9.20056-9.05412 13.86176-.26845.4393-.63452 1.0006-.09762 1.4399s1.00059-.0244 1.43987-.2928c1.22023-.7566 2.39165-1.5619 3.61188-2.2941.51249-.3172 1.09819-.6101 1.63509-.0732.5125.5125.2929 1.0982 0 1.6351-.2196.4149-.4881.8054-.7321 1.2202-3.29464 5.2958-6.61366 10.5916-9.883873 15.8874-.31726.5125-.951779 1.147-.341664 1.7572.610114.6101 1.220227-.0732 1.732727-.3905 2.63569-1.6107 5.24698-3.2458 7.88267-4.8809 2.97734-1.8548 5.95474-3.7095 8.95644-5.5155.6102-.366 1.3179-.7809 1.9524-.122.6589.6833.0976 1.3423-.2928 1.928-.659 1.0494-1.3911 2.0744-2.05 3.1482-.2929.4881-.8786 1.025-.2929 1.5863.5613.5369 1.1226-.0244 1.5863-.3417 3.4899-2.2452 7.0041-4.466 10.4696-6.7845 1.3178-.9029 2.7577-1.6839 4.0267-2.6601l.0732-.0732c.1221-.0976.2685-.1952.3905-.2928 3.2214-2.6113 5.2714-6.6137 5.2714-11.0797.0244-7.8827-6.3696-14.2767-14.2523-14.2767zm7.7607 20.451c0 .1465-.0488.2685-.1464.3661-.0977.0976-.2197.1464-.3661.1464h-2.1476c-.1464 0-.2685-.0488-.3661-.1464s-.1464-.2196-.1464-.3661v-1.4886c-.5369.7565-1.2446 1.3422-2.0988 1.7327s-1.8547.5857-2.953.5857c-2.1232 0-3.9047-.7077-5.2957-2.1476-1.4399-1.4399-2.1476-3.2458-2.1476-5.4178 0-2.1232.7565-3.92916 2.2452-5.39344 1.4887-1.46427 3.3434-2.19641 5.5154-2.19641 1.6839 0 3.1238.34166 4.344 1.0494 1.2202.70773 2.1232 1.70832 2.7089 3.00175.122.2685.122.4881.0244.6589-.0976.1709-.3172.2685-.6345.3173l-2.3184.4149c-.1953.0488-.3661.0244-.4881 0-.1464-.0488-.2685-.1709-.4393-.3661-.3905-.5125-.8542-.903-1.3911-1.1714-.5369-.26847-1.0982-.41489-1.7083-.41489-1.147 0-2.0744.39049-2.8309 1.17139-.7321.781-1.1226 1.7572-1.1226 2.953 0 1.2202.3905 2.1964 1.147 2.9773.7565.781 1.7083 1.1471 2.8065 1.1471.6589 0 1.2691-.1221 1.7816-.3661.5369-.2441.9761-.6101 1.3422-1.0982h-2.05c-.1464 0-.2684-.0488-.366-.1464-.0977-.0977-.1465-.2197-.1465-.3661v-1.9524c0-.1464.0488-.2684.1465-.3661.0976-.0976.2196-.1464.366-.1464h6.1988c.1464 0 .2684.0488.3661.1464.0976.0977.1464.2197.1464.3661v6.516z" fill="#fff"/></svg>

<svg width="40" height="40" viewBox="0 0 40 40" fill="none" xmlns="http://www.w3.org/2000/svg">
    <path d="M25.7248 0C20.6731 0 16.2315 2.63569 13.6934 6.61364C10.3744 11.0065 7.59223 15.8142 4.63928 20.4754C4.37083 20.9147 4.00476 21.476 4.54166 21.9153C5.07856 22.3546 5.54225 21.8909 5.98153 21.6225C7.20176 20.8659 8.37318 20.0606 9.59341 19.3284C10.1059 19.0112 10.6916 18.7183 11.2285 19.2552C11.741 19.7677 11.5214 20.3534 11.2285 20.8903C11.0089 21.3052 10.7404 21.6957 10.4964 22.1105C7.20176 27.4063 3.88274 32.7021 0.612527 37.9979C0.295267 38.5104 -0.339252 39.1449 0.270863 39.7551C0.880977 40.3652 1.49109 39.6819 2.00359 39.3646C4.63928 37.7539 7.25057 36.1188 9.88626 34.4837C12.8636 32.6289 15.841 30.7742 18.8427 28.9682C19.4529 28.6022 20.1606 28.1873 20.7951 28.8462C21.454 29.5295 20.8927 30.1885 20.5023 30.7742C19.8433 31.8236 19.1112 32.8486 18.4523 33.9224C18.1594 34.4105 17.5737 34.9474 18.1594 35.5087C18.7207 36.0456 19.282 35.4843 19.7457 35.167C23.2356 32.9218 26.7498 30.701 30.2153 28.3825C31.5331 27.4796 32.973 26.6986 34.242 25.7224C34.2664 25.698 34.2908 25.6736 34.3152 25.6492C34.4373 25.5516 34.5837 25.454 34.7057 25.3564C37.9271 22.7451 39.9771 18.7427 39.9771 14.2767C40.0015 6.394 33.6075 0 25.7248 0ZM33.4855 20.451C33.4855 20.5975 33.4367 20.7195 33.3391 20.8171C33.2414 20.9147 33.1194 20.9635 32.973 20.9635H30.8254C30.679 20.9635 30.5569 20.9147 30.4593 20.8171C30.3617 20.7195 30.3129 20.5975 30.3129 20.451V18.9624C29.776 19.7189 29.0683 20.3046 28.2141 20.6951C27.3599 21.0856 26.3594 21.2808 25.2611 21.2808C23.1379 21.2808 21.3564 20.5731 19.9654 19.1332C18.5255 17.6933 17.8178 15.8874 17.8178 13.7154C17.8178 11.5922 18.5743 9.78624 20.063 8.32196C21.5517 6.85769 23.4064 6.12555 25.5784 6.12555C27.2623 6.12555 28.7022 6.46721 29.9224 7.17495C31.1426 7.88268 32.0456 8.88327 32.6313 10.1767C32.7533 10.4452 32.7533 10.6648 32.6557 10.8356C32.5581 11.0065 32.3385 11.1041 32.0212 11.1529L29.7028 11.5678C29.5075 11.6166 29.3367 11.5922 29.2147 11.5678C29.0683 11.519 28.9462 11.3969 28.7754 11.2017C28.3849 10.6892 27.9212 10.2987 27.3843 10.0303C26.8474 9.76183 26.2861 9.61541 25.676 9.61541C24.529 9.61541 23.6016 10.0059 22.8451 10.7868C22.113 11.5678 21.7225 12.544 21.7225 13.7398C21.7225 14.96 22.113 15.9362 22.8695 16.7171C23.626 17.4981 24.5778 17.8642 25.676 17.8642C26.3349 17.8642 26.9451 17.7421 27.4576 17.4981C27.9945 17.254 28.4337 16.888 28.7998 16.3999H26.7498C26.6034 16.3999 26.4814 16.3511 26.3838 16.2535C26.2861 16.1558 26.2373 16.0338 26.2373 15.8874V13.935C26.2373 13.7886 26.2861 13.6666 26.3838 13.5689C26.4814 13.4713 26.6034 13.4225 26.7498 13.4225H32.9486C33.095 13.4225 33.217 13.4713 33.3147 13.5689C33.4123 13.6666 33.4611 13.7886 33.4611 13.935V20.451H33.4855Z" fill="white"/>
</svg>
